X: 1
T:Bourre de St. Priest-des-Champs
S:Les Brayauds
M:3/8
L:1/8
K:C
g2f|def|gaa|g2e|\
g/a/gf|d/e/fe|cdB|c3:|
|:d2c|B2d/e/|fde|c3|\
d2c|B2d/e/|fdB|c3:|
